img/Favicon/16.svg

<svg width="16" height="16" viewBox="0 0 16 16" fill="none" xmlns="http://www.w3.org/2000/svg">
<rect width="16" height="16" rx="4" fill="#EEEEEE"/>
<path d="M2.47175 10.4903C2.12967 10.0651 1.96611 9.5564 2.00687 9.04457V6.95544C1.96372 6.43984 2.12481 5.92672 2.4651 5.49584C2.77281 5.16343 3.29856 4.99816 4.04237 5.00002C4.78617 5.00187 5.28979 5.14765 5.55322 5.43734C5.87443 5.79633 6.03116 6.2402 5.99485 6.68803V7.17828H4.62014V6.64625C4.61829 6.50626 4.60386 6.36659 4.57698 6.22842C4.56036 6.1284 4.50561 6.03557 4.42091 5.9638C4.36862 5.92619 4.30792 5.8977 4.24236 5.88C4.17679 5.86231 4.10767 5.85576 4.03905 5.86074C3.94049 5.8484 3.83981 5.86184 3.75068 5.89922C3.66156 5.9366 3.58833 5.99611 3.54096 6.06965C3.45365 6.26527 3.41523 6.47386 3.42806 6.68246V9.33427C3.41292 9.54425 3.4573 9.75426 3.55757 9.94708C3.60547 10.0166 3.67657 10.0729 3.76211 10.1091C3.84765 10.1452 3.9439 10.1596 4.03905 10.1504C4.13254 10.1615 4.22782 10.1476 4.3113 10.1105C4.39478 10.0735 4.46219 10.0153 4.50392 9.94429C4.58425 9.74831 4.61918 9.54125 4.60686 9.33427V8.77716H5.98157V9.25906C6.02204 9.71349 5.8781 10.1661 5.57314 10.5432C5.28093 10.8496 4.77621 11 4.05897 11C3.34173 11 2.78056 10.8329 2.47175 10.4903Z" fill="#111111"/>
<path d="M7.26234 5H8.74706L10 11H8.76586L8.54346 9.67428H7.50352L7.25294 10.9914H6L7.26234 5ZM8.40564 8.92L8.01096 6.50857L7.61942 8.92H8.40564Z" fill="#111111"/>
<path d="M10.9067 5.90415H10V5H13V5.90415H12.1045V11H10.9039L10.9067 5.90415Z" fill="#111111"/>
</svg>

<svg width="16" height="16" fill="none" xmlns="http://www.w3.org/2000/svg"><rect width="16" height="16" rx="4" fill="#EEE"/><path d="M2.472 10.49a2.039 2.039 0 01-.465-1.445v-2.09a2.067 2.067 0 01.458-1.46c.308-.332.834-.497 1.577-.495.744.002 1.248.148 1.511.437.321.36.478.803.442 1.251v.49H4.62v-.532a2.35 2.35 0 00-.043-.418.444.444 0 00-.156-.264.552.552 0 00-.179-.084.613.613 0 00-.203-.02.568.568 0 00-.288.04.457.457 0 00-.21.17 1.302 1.302 0 00-.113.612v2.652c-.015.21.03.42.13.613a.46.46 0 00.204.162c.086.036.182.05.277.041a.523.523 0 00.272-.04.417.417 0 00.193-.166c.08-.196.115-.403.103-.61v-.557h1.375v.482c.04.454-.104.907-.409 1.284-.292.307-.797.457-1.514.457s-1.278-.167-1.587-.51zM7.262 5h1.485L10 11H8.766l-.223-1.326h-1.04l-.25 1.317H6L7.262 5zm1.144 3.92L8.01 6.509 7.619 8.92h.787zm2.501-3.016H10V5h3v.904h-.896V11h-1.2l.003-5.096z" fill="#111"/></svg>
